images/icons/landing_mail.svg

<svg xmlns="http://www.w3.org/2000/svg" viewBox="0 0 26 26" enable-background="new 0 0 792 612"><path d="M13 0c-7.2 0-13 5.8-13 13s5.8 13 13 13 13-5.8 13-13-5.8-13-13-13z" fill="#64bcba"/><path d="M3.5 7.5l5.8 5.4-5.8 5.9v-11.3zm18.6 12.3h-17.5l5.8-5.9 3 2.8 3.1-2.9 5.6 6zm-.3-13.8l-8.5 8-8.5-8h17zm1.4 1.5v11.3l-5.7-5.9 5.7-5.4z" fill="#fff"/></svg>

<?xml version="1.0" encoding="UTF-8" standalone="no"?>
<!-- Generator: Adobe Illustrator 18.0.0, SVG Export Plug-In . SVG Version: 6.00 Build 0)  -->

<svg
   xmlns:dc="http://purl.org/dc/elements/1.1/"
   xmlns:cc="http://creativecommons.org/ns#"
   xmlns:rdf="http://www.w3.org/1999/02/22-rdf-syntax-ns#"
   xmlns:svg="http://www.w3.org/2000/svg"
   xmlns="http://www.w3.org/2000/svg"
   xmlns:sodipodi="http://sodipodi.sourceforge.net/DTD/sodipodi-0.dtd"
   xmlns:inkscape="http://www.inkscape.org/namespaces/inkscape"
   version="1.1"
   id="Layer_1"
   x="0px"
   y="0px"
   viewBox="0 0 26 26"
   enable-background="new 0 0 792 612"
   xml:space="preserve"
   inkscape:version="0.48.5 r10040"
   width="100%"
   height="100%"
   sodipodi:docname="landing_mail.svg"><metadata
     id="metadata2995"><rdf:RDF><cc:Work
         rdf:about=""><dc:format>image/svg+xml</dc:format><dc:type
           rdf:resource="http://purl.org/dc/dcmitype/StillImage" /></cc:Work></rdf:RDF></metadata><defs
     id="defs2993" /><sodipodi:namedview
     pagecolor="#ffffff"
     bordercolor="#666666"
     borderopacity="1"
     objecttolerance="10"
     gridtolerance="10"
     guidetolerance="10"
     inkscape:pageopacity="0"
     inkscape:pageshadow="2"
     inkscape:window-width="640"
     inkscape:window-height="480"
     id="namedview2991"
     showgrid="false"
     fit-margin-top="0"
     fit-margin-left="0"
     fit-margin-right="0"
     fit-margin-bottom="0"
     inkscape:zoom="0.38562092"
     inkscape:cx="12.2"
     inkscape:cy="11.7"
     inkscape:window-x="0"
     inkscape:window-y="0"
     inkscape:window-maximized="0"
     inkscape:current-layer="Layer_1" /><path
     d="M 13,0 C 5.8,0 0,5.8 0,13 0,20.2 5.8,26 13,26 20.2,26 26,20.2 26,13 26,5.8 20.2,0 13,0 z"
     id="path2987"
     inkscape:connector-curvature="0"
     style="fill:#64bcba" /><path
     d="m 3.5,7.5 5.8,5.4 -5.8,5.9 V 7.5 z M 22.1,19.8 H 4.6 l 5.8,-5.9 3,2.8 3.1,-2.9 5.6,6 z M 21.8,6 13.3,14 4.8,6 h 17 z m 1.4,1.5 v 11.3 l -5.7,-5.9 5.7,-5.4 z"
     id="path2989"
     inkscape:connector-curvature="0"
     style="fill:#ffffff" /></svg>
